X: 28458
T: Mulvihill's
R: reel
M: 4/4
K: Gmajor
GABc defd|g2 dc BG (3GGG|FGAB cedc|(3Bcd BG FD (3DDD|
GABc defd|g2 dc BG (3GGG|FGAB (3cBA FA|1 DGGF G3 D:|2 DGGF GABc||
d2 de dcBc|de (3fga gedB|cA (3AAA A2 dB|cA (3AAA cAFA|
dB (3BBB dcBc|de (3fga gedc|(3Bcd gd cAGF|1 DGGF GABc:|2 DGGF G4||

